src/images/badges/doka-dog-help-5.svg

<svg width="40" height="40" viewBox="0 0 40 40" fill="none" xmlns="http://www.w3.org/2000/svg">
<path d="M39 10C39 5.02944 34.9706 1 30 1L10 1C5.02944 1 1 5.02944 1 10V30C1 34.9706 5.02944 39 10 39H30C34.9706 39 39 34.9706 39 30V10Z" fill="#41E847"/>
<path d="M9.62706 13.5297V8.90808C9.62706 8.62565 9.44733 8.44592 9.21625 8.44592C8.98517 8.44592 8.80544 8.59998 8.80544 8.90808V13.5297C8.80544 15.0702 8.13787 15.6865 7.03382 15.6865C5.95544 15.6865 5.28787 15.0702 5.28787 13.5297V8.90808C5.28787 8.62565 5.10814 8.44592 4.87706 8.44592C4.64598 8.44592 4.46625 8.59998 4.46625 8.90808V13.5297C4.46625 15.3527 5.31354 16.4567 7.03382 16.4567C8.77976 16.4567 9.62706 15.3527 9.62706 13.5297Z" fill="black"/>
<path fill-rule="evenodd" clip-rule="evenodd" d="M11.0391 14.6594C11.0391 14.8391 11.1675 14.9932 11.3729 14.9932C11.5013 14.9932 11.604 14.9418 11.7067 14.8391L12.3486 14.1972C12.6824 14.4283 13.0932 14.5567 13.5297 14.5567C13.9662 14.5567 14.3513 14.4283 14.6851 14.1972L15.3526 14.8391C15.4553 14.9418 15.558 14.9932 15.6864 14.9932C15.8918 14.9932 16.0202 14.8391 16.0202 14.6594C16.0202 14.531 15.9689 14.4283 15.8662 14.3256L15.2243 13.6837C15.4297 13.3756 15.5837 12.9648 15.5837 12.5026C15.5837 12.0405 15.4553 11.6553 15.2243 11.3215L15.8662 10.6797C15.9689 10.577 16.0202 10.4742 16.0202 10.3459C16.0202 10.1661 15.8918 10.0121 15.6864 10.0121C15.558 10.0121 15.4553 10.0634 15.3526 10.1661L14.6851 10.8337C14.3513 10.6026 13.9405 10.4742 13.5297 10.4742C13.0932 10.4742 12.6824 10.6026 12.3486 10.8337L11.7067 10.1661C11.604 10.0634 11.5013 10.0121 11.3729 10.0121C11.1675 10.0121 11.0391 10.1661 11.0391 10.3459C11.0391 10.4742 11.0905 10.577 11.1932 10.6797L11.8351 11.3215C11.604 11.6553 11.4756 12.0661 11.4756 12.5026C11.4756 12.9648 11.604 13.3756 11.8351 13.6837L11.1932 14.3256C11.0905 14.4283 11.0391 14.531 11.0391 14.6594ZM13.5297 11.0905C14.2743 11.0905 14.7878 11.6553 14.7878 12.477C14.7878 13.2986 14.2743 13.8634 13.5297 13.8634C12.7851 13.8634 12.2716 13.2986 12.2716 12.477C12.2716 11.6553 12.7851 11.0905 13.5297 11.0905Z" fill="black"/>
<path d="M19.9999 15.4554C19.5634 16.046 19.0242 16.6108 18.1256 16.6108C17.7918 16.6108 17.4837 16.5338 17.5094 16.2C17.5094 16.0203 17.6634 15.8406 17.8688 15.8406C17.9046 15.8406 17.9514 15.8461 18.0016 15.8521C18.0595 15.8589 18.1219 15.8663 18.1769 15.8663C18.5878 15.8663 19.1013 15.3271 19.3837 14.9163C18.7932 14.3 18.1769 13.5298 18.1769 12.6568C18.1769 11.6554 18.9472 10.9365 19.9999 10.9365C21.0526 10.9365 21.8229 11.6554 21.8229 12.6568C21.8229 13.5041 21.181 14.3 20.6161 14.9163C20.8986 15.3014 21.3864 15.8663 21.8229 15.8663C21.8614 15.8663 21.9192 15.8599 21.9769 15.8534C22.0347 15.847 22.0925 15.8406 22.131 15.8406C22.3364 15.8406 22.4905 16.0203 22.4905 16.2C22.4905 16.5081 22.208 16.6108 21.8742 16.6108C20.9756 16.6108 20.4364 16.046 19.9999 15.4554Z" fill="black"/>
<path fill-rule="evenodd" clip-rule="evenodd" d="M23.9797 14.6594C23.9797 14.8391 24.1081 14.9932 24.3135 14.9932C24.4418 14.9932 24.5445 14.9418 24.6472 14.8391L25.2891 14.1972C25.6229 14.4283 26.0337 14.5567 26.4702 14.5567C26.9067 14.5567 27.2918 14.4283 27.6256 14.1972L28.2932 14.8391C28.3959 14.9418 28.4986 14.9932 28.627 14.9932C28.8324 14.9932 28.9608 14.8391 28.9608 14.6594C28.9608 14.531 28.9094 14.4283 28.8067 14.3256L28.1648 13.6837C28.3702 13.3756 28.5243 12.9648 28.5243 12.5026C28.5243 12.0405 28.3959 11.6553 28.1648 11.3215L28.8067 10.6797C28.9094 10.577 28.9608 10.4742 28.9608 10.3459C28.9608 10.1661 28.8324 10.0121 28.627 10.0121C28.4986 10.0121 28.3959 10.0634 28.2932 10.1661L27.6256 10.8337C27.2918 10.6026 26.881 10.4742 26.4702 10.4742C26.0337 10.4742 25.6229 10.6026 25.2891 10.8337L24.6472 10.1661C24.5445 10.0634 24.4418 10.0121 24.3135 10.0121C24.1081 10.0121 23.9797 10.1661 23.9797 10.3459C23.9797 10.4742 24.031 10.577 24.1337 10.6797L24.7756 11.3215C24.5445 11.6553 24.4162 12.0661 24.4162 12.5026C24.4162 12.9648 24.5445 13.3756 24.7756 13.6837L24.1337 14.3256C24.031 14.4283 23.9797 14.531 23.9797 14.6594ZM26.4702 11.0905C27.2148 11.0905 27.7283 11.6553 27.7283 12.477C27.7283 13.2986 27.2148 13.8634 26.4702 13.8634C25.7256 13.8634 25.2121 13.2986 25.2121 12.477C25.2121 11.6553 25.7513 11.0905 26.4702 11.0905Z" fill="black"/>
<path d="M34.7121 8.93384C34.7121 8.62573 34.8918 8.47168 35.1229 8.47168C35.354 8.47168 35.5337 8.62573 35.5337 8.93384V13.5555C35.5337 15.3784 34.6864 16.4825 32.9405 16.4825C31.2202 16.4825 30.3729 15.3784 30.3729 13.5555V8.93384C30.3729 8.62573 30.5527 8.47168 30.7837 8.47168C31.0148 8.47168 31.1945 8.65141 31.1945 8.93384V13.5555C31.1945 15.096 31.8621 15.7122 32.9405 15.7122C34.0445 15.7122 34.7121 15.096 34.7121 13.5555V8.93384Z" fill="black"/>
<path fill-rule="evenodd" clip-rule="evenodd" d="M19.5635 25.9568C17.304 25.9568 15.6094 27.6771 15.6094 29.9108C15.6094 32.1446 17.304 33.8649 19.5635 33.8649C21.8229 33.8649 23.5175 32.1446 23.5175 29.9108C23.5175 27.7027 21.7973 25.9568 19.5635 25.9568ZM18.7933 29.3974C19.0244 29.269 19.3325 29.1663 19.7176 29.1663C20.6163 29.1663 21.2325 29.7568 21.2838 30.5014C21.2838 31.3487 20.6163 31.9392 19.6406 31.9392C18.9217 31.9392 18.3568 31.6311 18.1 31.3487C18.023 31.2717 17.946 31.169 17.946 31.0406C17.946 30.8609 18.1 30.7325 18.2541 30.7325C18.3825 30.7325 18.4852 30.8095 18.5622 30.9122C18.7933 31.1946 19.1784 31.3487 19.6149 31.3487C20.2054 31.3487 20.6163 31.0149 20.6163 30.5014C20.6163 29.9622 20.1541 29.6798 19.7176 29.6798C19.3325 29.6798 18.9987 29.8338 18.7933 29.9622C18.6395 30.0647 18.5621 30.1163 18.4338 30.1163C18.2798 30.1163 18.1257 30.0136 18.1257 29.8338C18.1257 29.8232 18.1301 29.8082 18.1353 29.7906C18.1426 29.7657 18.1514 29.7356 18.1514 29.7055L18.4081 28.0622C18.4338 27.8825 18.5365 27.7798 18.7163 27.7798H20.7703C20.9757 27.7798 21.1041 27.9082 21.1041 28.0879C21.1041 28.2676 20.9757 28.396 20.7703 28.396C20.6746 28.396 20.4247 28.3916 20.1319 28.3864C19.7178 28.3791 19.2181 28.3703 18.9473 28.3703L18.7933 29.3974Z" fill="black"/>
<path d="M8.72832 21.5149C8.90805 21.5149 9.03642 21.6433 9.11345 21.7716L15.5324 32.5554C15.5837 32.6325 15.6094 32.7095 15.6094 32.8122C15.6094 33.0689 15.4553 33.223 15.1986 33.223C15.0189 33.223 14.8905 33.0946 14.8135 32.9662L8.39453 22.1825C8.34318 22.1054 8.3175 22.0284 8.3175 21.9257C8.3175 21.6689 8.47156 21.5149 8.72832 21.5149Z" fill="black"/>
<path d="M30.3728 21.5405C30.1931 21.5405 30.0647 21.6689 29.9876 21.7973L23.5687 32.5811C23.5174 32.6581 23.4917 32.7608 23.4917 32.8378C23.4917 33.0689 23.6458 33.2486 23.9025 33.2486C24.0822 33.2486 24.2106 33.1203 24.2876 32.9919L30.7066 22.2081C30.7579 22.1311 30.7836 22.0284 30.7836 21.9513C30.7836 21.6946 30.6295 21.5405 30.3728 21.5405Z" fill="black"/>
</svg>

<svg xmlns="http://www.w3.org/2000/svg" width="40" height="40" fill="none"><path fill="#41E847" d="M39 10a9 9 0 0 0-9-9H10a9 9 0 0 0-9 9v20a9 9 0 0 0 9 9h20a9 9 0 0 0 9-9V10Z"/><path fill="#000" d="M9.627 13.53V8.908c0-.282-.18-.462-.41-.462-.232 0-.412.154-.412.462v4.622c0 1.54-.667 2.157-1.771 2.157-1.079 0-1.746-.617-1.746-2.157V8.908c0-.282-.18-.462-.41-.462-.232 0-.412.154-.412.462v4.622c0 1.823.848 2.927 2.568 2.927 1.746 0 2.593-1.104 2.593-2.927Z"/><path fill="#000" fill-rule="evenodd" d="M11.04 14.66c0 .18.128.333.333.333a.452.452 0 0 0 .334-.154l.642-.642c.333.231.744.36 1.18.36a1.99 1.99 0 0 0 1.156-.36l.668.642a.452.452 0 0 0 .333.154.324.324 0 0 0 .334-.334.452.452 0 0 0-.154-.333l-.642-.642c.206-.308.36-.72.36-1.181 0-.463-.129-.848-.36-1.181l.642-.642a.452.452 0 0 0 .154-.334.324.324 0 0 0-.334-.334.452.452 0 0 0-.333.154l-.668.668a2.05 2.05 0 0 0-1.155-.36 2.07 2.07 0 0 0-1.181.36l-.642-.668a.452.452 0 0 0-.334-.154.324.324 0 0 0-.334.334c0 .128.052.231.154.334l.642.642a2.07 2.07 0 0 0-.36 1.18c0 .463.129.874.36 1.182l-.642.642a.452.452 0 0 0-.154.333Zm2.49-3.57c.744 0 1.258.565 1.258 1.387 0 .822-.514 1.386-1.258 1.386-.745 0-1.258-.564-1.258-1.386s.513-1.386 1.258-1.386Z" clip-rule="evenodd"/><path fill="#000" d="M20 15.455c-.437.591-.976 1.156-1.874 1.156-.334 0-.642-.077-.617-.411 0-.18.154-.36.36-.36.036 0 .082.006.133.012.058.007.12.014.175.014.41 0 .924-.539 1.207-.95-.59-.616-1.207-1.386-1.207-2.26 0-1 .77-1.72 1.823-1.72s1.823.72 1.823 1.72c0 .848-.642 1.644-1.207 2.26.283.385.77.95 1.207.95.038 0 .096-.006.154-.013.058-.006.116-.012.154-.012.205 0 .36.18.36.359 0 .308-.283.41-.617.41-.898 0-1.438-.564-1.874-1.155Z"/><path fill="#000" fill-rule="evenodd" d="M23.98 14.66c0 .18.128.333.334.333a.452.452 0 0 0 .333-.154l.642-.642c.334.231.745.36 1.181.36a1.99 1.99 0 0 0 1.156-.36l.667.642a.452.452 0 0 0 .334.154.324.324 0 0 0 .334-.334.452.452 0 0 0-.154-.333l-.642-.642c.205-.308.36-.72.36-1.181 0-.463-.13-.848-.36-1.181l.642-.642a.452.452 0 0 0 .154-.334.324.324 0 0 0-.334-.334.452.452 0 0 0-.334.154l-.667.668a2.05 2.05 0 0 0-1.156-.36 2.07 2.07 0 0 0-1.18.36l-.643-.668a.452.452 0 0 0-.333-.154.324.324 0 0 0-.334.334c0 .128.051.231.154.334l.642.642a2.07 2.07 0 0 0-.36 1.18c0 .463.128.874.36 1.182l-.642.642a.452.452 0 0 0-.154.333Zm2.49-3.57c.745 0 1.258.565 1.258 1.387 0 .822-.513 1.386-1.258 1.386-.744 0-1.258-.564-1.258-1.386s.54-1.386 1.258-1.386Z" clip-rule="evenodd"/><path fill="#000" d="M34.712 8.934c0-.308.18-.462.41-.462.232 0 .412.154.412.462v4.622c0 1.822-.848 2.927-2.593 2.927-1.72 0-2.568-1.105-2.568-2.928V8.934c0-.308.18-.462.41-.462.232 0 .412.18.412.462v4.622c0 1.54.667 2.156 1.745 2.156 1.105 0 1.772-.616 1.772-2.156V8.934Z"/><path fill="#000" fill-rule="evenodd" d="M19.564 25.957c-2.26 0-3.955 1.72-3.955 3.954s1.695 3.954 3.955 3.954c2.259 0 3.953-1.72 3.953-3.954 0-2.208-1.72-3.954-3.953-3.954Zm-.77 3.44c.23-.128.538-.23.924-.23.898 0 1.515.59 1.566 1.334 0 .848-.668 1.438-1.643 1.438-.72 0-1.284-.308-1.541-.59-.077-.077-.154-.18-.154-.308 0-.18.154-.308.308-.308.128 0 .231.076.308.18.231.282.616.436 1.053.436.59 0 1.001-.334 1.001-.848 0-.539-.462-.821-.898-.821a1.79 1.79 0 0 0-.925.282c-.153.103-.23.154-.36.154-.153 0-.307-.102-.307-.282a.18.18 0 0 1 .01-.043.308.308 0 0 0 .015-.085l.257-1.644c.026-.18.128-.282.308-.282h2.054c.206 0 .334.128.334.308s-.128.308-.334.308c-.095 0-.345-.004-.638-.01a86.697 86.697 0 0 0-1.185-.016l-.154 1.027Z" clip-rule="evenodd"/><path fill="#000" d="M8.728 21.515c.18 0 .308.128.385.257l6.42 10.783a.434.434 0 0 1 .076.257c0 .257-.154.411-.41.411-.18 0-.309-.128-.386-.257L8.395 22.182a.434.434 0 0 1-.077-.256c0-.257.154-.411.41-.411ZM30.373 21.54c-.18 0-.308.129-.385.257l-6.42 10.784a.496.496 0 0 0-.076.257c0 .23.154.41.41.41.18 0 .309-.128.386-.256l6.419-10.784a.496.496 0 0 0 .077-.257c0-.256-.154-.41-.411-.41Z"/></svg>
